assets/camera-reel-fill.svg

<svg xmlns="http://www.w3.org/2000/svg" fill="none" viewBox="0 0 28 28">
  <path fill="#2A2238" d="M10.5 5.25c0 1.39239-.55312 2.72774-1.53769 3.71231C7.97774 9.94688 6.64239 10.5 5.25 10.5c-1.39239 0-2.72774-.55312-3.71231-1.53769C.553123 7.97774 0 6.64239 0 5.25c0-1.39239.553123-2.72774 1.53769-3.71231C2.52226.553123 3.85761 0 5.25 0c1.39239 0 2.72774.553123 3.71231 1.53769C9.94688 2.52226 10.5 3.85761 10.5 5.25Zm5.25 5.25c-1.3924 0-2.7277-.55312-3.7123-1.53769C11.0531 7.97774 10.5 6.64239 10.5 5.25c0-1.39239.5531-2.72774 1.5377-3.71231C13.0223.553123 14.3576 0 15.75 0c1.3924 0 2.7277.553123 3.7123 1.53769C20.4469 2.52226 21 3.85761 21 5.25c0 1.39239-.5531 2.72774-1.5377 3.71231C18.4777 9.94688 17.1424 10.5 15.75 10.5Z"/>
  <path fill="#2A2238" d="M15.75 10.5h.875c.8489-.0001 1.6689.3083 2.3073.8679.6385.5595 1.0517 1.332 1.1629 2.1736l5.4426-2.4185c.2663-.1187.5582-.1689.8489-.1462.2908.0228.5712.1179.8159.2767.2446.1587.4457.3761.585.6324.1393.2562.2123.5432.2124.8349v13.0584c-.0003.2915-.0733.5782-.2124.8342-.1392.2561-.3401.4733-.5845.632s-.5246.2539-.8151.2769c-.2905.023-.5822-.027-.8485-.1453l-5.4443-2.4185c-.1112.8416-.5244 1.6141-1.1629 2.1736-.6384.5596-1.4584.868-2.3073.8679H3.5c-.92826 0-1.8185-.3687-2.47487-1.0251C.368749 26.3185 0 25.4283 0 24.5V14c0-.9283.368749-1.8185 1.02513-2.4749C1.6815 10.8687 2.57174 10.5 3.5 10.5h12.25Z"/>
</svg>

<svg width="28" height="28" viewBox="0 0 28 28" fill="none" xmlns="http://www.w3.org/2000/svg">
<path d="M10.5 5.25C10.5 6.64239 9.94688 7.97774 8.96231 8.96231C7.97774 9.94688 6.64239 10.5 5.25 10.5C3.85761 10.5 2.52226 9.94688 1.53769 8.96231C0.553123 7.97774 0 6.64239 0 5.25C0 3.85761 0.553123 2.52226 1.53769 1.53769C2.52226 0.553123 3.85761 0 5.25 0C6.64239 0 7.97774 0.553123 8.96231 1.53769C9.94688 2.52226 10.5 3.85761 10.5 5.25Z" fill="#2A2238"/>
<path d="M15.75 10.5C14.3576 10.5 13.0223 9.94688 12.0377 8.96231C11.0531 7.97774 10.5 6.64239 10.5 5.25C10.5 3.85761 11.0531 2.52226 12.0377 1.53769C13.0223 0.553123 14.3576 0 15.75 0C17.1424 0 18.4777 0.553123 19.4623 1.53769C20.4469 2.52226 21 3.85761 21 5.25C21 6.64239 20.4469 7.97774 19.4623 8.96231C18.4777 9.94688 17.1424 10.5 15.75 10.5Z" fill="#2A2238"/>
<path d="M15.75 10.5H16.625C17.4739 10.4999 18.2939 10.8083 18.9323 11.3679C19.5708 11.9274 19.984 12.6999 20.0952 13.5415L25.5378 11.123C25.8041 11.0043 26.096 10.9541 26.3867 10.9768C26.6775 10.9996 26.9579 11.0947 27.2026 11.2535C27.4472 11.4122 27.6483 11.6296 27.7876 11.8859C27.9269 12.1421 27.9999 12.4291 28 12.7208V25.7792C27.9997 26.0707 27.9267 26.3574 27.7876 26.6134C27.6484 26.8695 27.4475 27.0867 27.2031 27.2454C26.9587 27.4041 26.6785 27.4993 26.388 27.5223C26.0975 27.5453 25.8058 27.4953 25.5395 27.377L20.0952 24.9585C19.984 25.8001 19.5708 26.5726 18.9323 27.1321C18.2939 27.6917 17.4739 28.0001 16.625 28H3.5C2.57174 28 1.6815 27.6313 1.02513 26.9749C0.368749 26.3185 0 25.4283 0 24.5V14C0 13.0717 0.368749 12.1815 1.02513 11.5251C1.6815 10.8687 2.57174 10.5 3.5 10.5H15.75Z" fill="#2A2238"/>
</svg>
